images/amazon_icon.svg

<svg fill="none" height="16" viewBox="0 0 16 16" width="16" xmlns="http://www.w3.org/2000/svg" xmlns:xlink="http://www.w3.org/1999/xlink"><clipPath id="a"><path d="m0 0h16v16h-16z"/></clipPath><g clip-path="url(#a)"><path d="m13.774 12.9177c-6.47678 3.0823-10.49631.5034-13.069342-1.063-.159218-.0987-.429833.0231-.195037.2928.857209 1.0394 3.666449 3.5445 7.333329 3.5445 3.66945 0 5.85235-2.0021 6.12545-2.3514.2712-.3463.0796-.5373-.1945-.4229zm1.8189-1.0046c-.1739-.2264-1.0576-.2687-1.6137-.2003-.557.0663-1.393.4067-1.3203.6111.0373.0766.1134.0422.496.0078.3837-.0383 1.4585-.1739 1.6825.1188.225.2948-.3428 1.6992-.4465 1.9257-.1002.2264.0383.2848.2265.134.1856-.1508.5216-.5413.7471-1.0939.224-.5556.3606-1.3307.2284-1.5032z" fill="#f90"/><path clip-rule="evenodd" d="m9.41921 6.62799c0 .80877.02043 1.48326-.38836 2.20149-.32995.58401-.8526.94313-1.43655.94313-.79715 0-1.26139-.60733-1.26139-1.50368 0-1.76945 1.58543-2.09059 3.0863-2.09059zm2.09349 5.06001c-.1372.1226-.3358.1314-.4905.0496-.6891-.5722-.8118-.8379-1.19131-1.3839-1.13873 1.1621-1.94461 1.5095-3.42203 1.5095-1.74607 0-3.10674-1.0774-3.10674-3.23515 0-1.6847.91397-2.83222 2.21321-3.39278 1.1271-.49643 2.7009-.58401 3.90388-.72119v-.26865c0-.49347.03791-1.07742-.25111-1.50369-.25406-.3825-.73874-.54018-1.16507-.54018-.79124 0-1.49785.40583-1.67012 1.24673-.03508.18691-.17227.37087-.35912.37961l-2.01472-.21602c-.16931-.03804-.35617-.17522-.30946-.43513.46425-2.440908 2.66865-3.17675 4.64244-3.17675 1.01028 0 2.33005.268647 3.12715 1.03366 1.0103.94307.9139 2.2015.9139 3.57089v3.23516c0 .9723.403 1.39856.7825 1.92416.1343.18686.1635.41173-.0058.55183-.4234.3533-1.1767 1.0103-1.5913 1.3782l-.0059-.0059" fill="#000" fill-rule="evenodd"/><path d="m13.774 12.9177c-6.47678 3.0823-10.49631.5034-13.069342-1.063-.159218-.0987-.429833.0231-.195037.2928.857209 1.0394 3.666449 3.5445 7.333329 3.5445 3.66945 0 5.85235-2.0021 6.12545-2.3514.2712-.3463.0796-.5373-.1945-.4229zm1.8189-1.0046c-.1739-.2264-1.0576-.2687-1.6137-.2003-.557.0663-1.393.4067-1.3203.6111.0373.0766.1134.0422.496.0078.3837-.0383 1.4585-.1739 1.6825.1188.225.2948-.3428 1.6992-.4465 1.9257-.1002.2264.0383.2848.2265.134.1856-.1508.5216-.5413.7471-1.0939.224-.5556.3606-1.3307.2284-1.5032z" fill="#f90"/><path clip-rule="evenodd" d="m9.41921 6.62799c0 .80877.02043 1.48326-.38836 2.20149-.32995.58401-.8526.94313-1.43655.94313-.79715 0-1.26139-.60733-1.26139-1.50368 0-1.76945 1.58543-2.09059 3.0863-2.09059zm2.09349 5.06001c-.1372.1226-.3358.1314-.4905.0496-.6891-.5722-.8118-.8379-1.19131-1.3839-1.13873 1.1621-1.94461 1.5095-3.42203 1.5095-1.74607 0-3.10674-1.0774-3.10674-3.23515 0-1.6847.91397-2.83222 2.21321-3.39278 1.1271-.49643 2.7009-.58401 3.90388-.72119v-.26865c0-.49347.03791-1.07742-.25111-1.50369-.25406-.3825-.73874-.54018-1.16507-.54018-.79124 0-1.49785.40583-1.67012 1.24673-.03508.18691-.17227.37087-.35912.37961l-2.01472-.21602c-.16931-.03804-.35617-.17522-.30946-.43513.46425-2.440908 2.66865-3.17675 4.64244-3.17675 1.01028 0 2.33005.268647 3.12715 1.03366 1.0103.94307.9139 2.2015.9139 3.57089v3.23516c0 .9723.403 1.39856.7825 1.92416.1343.18686.1635.41173-.0058.55183-.4234.3533-1.1767 1.0103-1.5913 1.3782l-.0059-.0059" fill="#000" fill-rule="evenodd"/></g></svg>

<svg width="16" height="16" viewBox="0 0 16 16" fill="none" xmlns="http://www.w3.org/2000/svg">
<g clip-path="url(#clip0)">
<path d="M13.774 12.9177C7.29722 16 3.27769 13.4211 0.704658 11.8547C0.54544 11.756 0.274825 11.8778 0.509621 12.1475C1.36683 13.1869 4.17607 15.692 7.84295 15.692C11.5124 15.692 13.6953 13.6899 13.9684 13.3406C14.2396 12.9943 14.048 12.8033 13.7739 12.9177H13.774ZM15.5929 11.9131C15.419 11.6867 14.5353 11.6444 13.9792 11.7128C13.4222 11.7791 12.5862 12.1195 12.6589 12.3239C12.6962 12.4005 12.7723 12.3661 13.1549 12.3317C13.5386 12.2934 14.6134 12.1578 14.8374 12.4505C15.0624 12.7453 14.4946 14.1497 14.3909 14.3762C14.2907 14.6026 14.4292 14.661 14.6174 14.5102C14.803 14.3594 15.139 13.9689 15.3645 13.4163C15.5885 12.8607 15.7251 12.0856 15.5929 11.9131H15.5929Z" fill="#FF9900"/>
<path fill-rule="evenodd" clip-rule="evenodd" d="M9.41921 6.62799C9.41921 7.43676 9.43964 8.11125 9.03085 8.82948C8.7009 9.41349 8.17825 9.77261 7.5943 9.77261C6.79715 9.77261 6.33291 9.16528 6.33291 8.26893C6.33291 6.49948 7.91834 6.17834 9.41921 6.17834V6.62799ZM11.5127 11.688C11.3755 11.8106 11.1769 11.8194 11.0222 11.7376C10.3331 11.1654 10.2104 10.8997 9.83089 10.3537C8.69216 11.5158 7.88628 11.8632 6.40886 11.8632C4.66279 11.8632 3.30212 10.7858 3.30212 8.62805C3.30212 6.94335 4.21609 5.79583 5.51533 5.23527C6.64243 4.73884 8.21623 4.65126 9.41921 4.51408V4.24543C9.41921 3.75196 9.45712 3.16801 9.1681 2.74174C8.91404 2.35924 8.42936 2.20156 8.00303 2.20156C7.21179 2.20156 6.50518 2.60739 6.33291 3.44829C6.29783 3.6352 6.16064 3.81916 5.97379 3.8279L3.95907 3.61188C3.78976 3.57384 3.6029 3.43666 3.64961 3.17675C4.11386 0.735842 6.31826 0 8.29205 0C9.30233 0 10.6221 0.268647 11.4192 1.03366C12.4295 1.97673 12.3331 3.23516 12.3331 4.60455V7.83971C12.3331 8.81201 12.7361 9.23827 13.1156 9.76387C13.2499 9.95073 13.2791 10.1756 13.1098 10.3157C12.6864 10.669 11.9331 11.326 11.5185 11.6939L11.5126 11.688" fill="black"/>
<path d="M13.774 12.9177C7.29722 16 3.27769 13.4211 0.704658 11.8547C0.54544 11.756 0.274825 11.8778 0.509621 12.1475C1.36683 13.1869 4.17607 15.692 7.84295 15.692C11.5124 15.692 13.6953 13.6899 13.9684 13.3406C14.2396 12.9943 14.048 12.8033 13.7739 12.9177H13.774ZM15.5929 11.9131C15.419 11.6867 14.5353 11.6444 13.9792 11.7128C13.4222 11.7791 12.5862 12.1195 12.6589 12.3239C12.6962 12.4005 12.7723 12.3661 13.1549 12.3317C13.5386 12.2934 14.6134 12.1578 14.8374 12.4505C15.0624 12.7453 14.4946 14.1497 14.3909 14.3762C14.2907 14.6026 14.4292 14.661 14.6174 14.5102C14.803 14.3594 15.139 13.9689 15.3645 13.4163C15.5885 12.8607 15.7251 12.0856 15.5929 11.9131H15.5929Z" fill="#FF9900"/>
<path fill-rule="evenodd" clip-rule="evenodd" d="M9.41921 6.62799C9.41921 7.43676 9.43964 8.11125 9.03085 8.82948C8.7009 9.41349 8.17825 9.77261 7.5943 9.77261C6.79715 9.77261 6.33291 9.16528 6.33291 8.26893C6.33291 6.49948 7.91834 6.17834 9.41921 6.17834V6.62799ZM11.5127 11.688C11.3755 11.8106 11.1769 11.8194 11.0222 11.7376C10.3331 11.1654 10.2104 10.8997 9.83089 10.3537C8.69216 11.5158 7.88628 11.8632 6.40886 11.8632C4.66279 11.8632 3.30212 10.7858 3.30212 8.62805C3.30212 6.94335 4.21609 5.79583 5.51533 5.23527C6.64243 4.73884 8.21623 4.65126 9.41921 4.51408V4.24543C9.41921 3.75196 9.45712 3.16801 9.1681 2.74174C8.91404 2.35924 8.42936 2.20156 8.00303 2.20156C7.21179 2.20156 6.50518 2.60739 6.33291 3.44829C6.29783 3.6352 6.16064 3.81916 5.97379 3.8279L3.95907 3.61188C3.78976 3.57384 3.6029 3.43666 3.64961 3.17675C4.11386 0.735842 6.31826 0 8.29205 0C9.30233 0 10.6221 0.268647 11.4192 1.03366C12.4295 1.97673 12.3331 3.23516 12.3331 4.60455V7.83971C12.3331 8.81201 12.7361 9.23827 13.1156 9.76387C13.2499 9.95073 13.2791 10.1756 13.1098 10.3157C12.6864 10.669 11.9331 11.326 11.5185 11.6939L11.5126 11.688" fill="black"/>
</g>
<defs>
<clipPath id="clip0">
<rect width="16" height="16" fill="white"/>
</clipPath>
</defs>
</svg>
